docs/svgs/table-wash.svg

<svg viewBox="0 0 24 24" height="24px" width="24px" fill="#44739e" xmlns="http://www.w3.org/2000/svg"><title>hue:table-wash</title><desc>Source: https://github.com/arallsopp/hass-hue-icons</desc><path d="M 16.074219 12.121094 C 14.871094 11.144531 13.773438 10.023438 12.8125 8.789062 C 9.851562 4.984375 10.90625 3.710938 14.707031 6.765625 C 15.945312 7.761719 17.070312 8.910156 18.046875 10.175781 C 21.035156 14.066406 19.796875 15.148438 16.074219 12.121094 M 21 12.949219 C 21 12.890625 21 12.828125 20.996094 12.773438 C 20.996094 12.355469 20.816406 11.777344 20.425781 11.050781 C 19.15625 8.660156 16.191406 5.628906 13.851562 4.332031 C 13.191406 3.964844 12.660156 3.777344 12.265625 3.757812 C 12.21875 3.75 12.175781 3.75 12.128906 3.757812 C 12.085938 3.75 12.046875 3.75 12 3.75 C 8.625 3.75 3 9.5 3 12.949219 C 3 16.148438 4.59375 18.960938 7.011719 20.609375 C 7.386719 20.863281 7.828125 21 8.277344 21 L 14.464844 21 C 14.9375 21 15.398438 20.847656 15.785156 20.566406 C 18.472656 18.609375 21 15.261719 21 12.949219 "/></svg>

<svg viewBox="0 0 24 24" height="24px" width="24px" fill="#44739e" xmlns="http://www.w3.org/2000/svg"><title>hue:table-wash</title><desc>Source: https://github.com/arallsopp/hass-hue-icons</desc><path d="M16.07,12.12c-1.2-0.98-2.3-2.1-3.26-3.33c-2.96-3.8-1.91-5.08,1.89-2.02c1.24,1,2.36,2.14,3.34,3.41 C21.04,14.07,19.8,15.15,16.07,12.12 M21,12.95c0-0.06,0-0.12,0-0.18c0-0.42-0.18-1-0.57-1.72c-1.27-2.39-4.23-5.42-6.57-6.72 c-0.66-0.37-1.19-0.55-1.59-0.57c-0.05-0.01-0.09-0.01-0.14,0C12.09,3.75,12.05,3.75,12,3.75c-3.38,0-9,5.75-9,9.2 c0,3.2,1.59,6.01,4.01,7.66C7.39,20.86,7.83,21,8.28,21h6.19c0.47,0,0.93-0.15,1.32-0.43C18.47,18.61,21,15.26,21,12.95"/></svg>
